components/Common/Svg/svgs/contentfulPartner.svg

<svg
  width="90"
  height="90"
  viewBox="0 0 90 90"
  fill="none"
  xmlns="http://www.w3.org/2000/svg"
>
  <circle
    opacity="0.5"
    cx="45"
    cy="45"
    r="45"
    fill="#FFE603"
  ></circle>
  <path
    d="M56.584 49.6414C55.799 48.0047 52.9906 45.733 50.2773 43.538C48.764 42.3146 47.334 41.158 46.4223 40.2464C46.194 40.0164 45.8523 39.943 45.5507 40.0514C44.989 40.2547 44.6423 40.4114 44.369 40.533C43.9524 40.7196 43.8124 40.783 43.2507 40.8396C43.0023 40.8646 42.779 40.998 42.6407 41.2046C41.4623 42.9663 40.2423 42.8163 39.4273 42.543C39.1673 42.4564 39.1207 42.3446 39.0957 42.238C38.9207 41.5064 39.799 39.803 40.9373 38.6646C43.6457 35.9546 45.0423 35.2763 47.9923 36.5946C51.339 38.0913 54.6923 39.263 54.7257 39.2746C55.164 39.4263 55.6357 39.1963 55.7873 38.7613C55.9373 38.3263 55.709 37.8513 55.274 37.6996C55.2406 37.688 51.954 36.5396 48.674 35.0713C44.8523 33.3629 42.7556 34.4879 39.7606 37.4846C38.6206 38.6246 37.0722 40.9313 37.4722 42.623C37.6439 43.343 38.1506 43.8764 38.9039 44.1246C40.7922 44.748 42.5155 44.1513 43.7989 42.448C44.3289 42.3664 44.6172 42.2464 45.0505 42.0514C45.2072 41.9814 45.3905 41.8997 45.6339 41.8014C46.5872 42.6964 47.8739 43.738 49.2289 44.833C51.6789 46.8146 54.4572 49.0614 55.0822 50.3614C55.3906 51.003 55.0589 51.4214 54.8339 51.613C54.5039 51.8964 54.0522 51.9864 53.8072 51.8146C53.5372 51.6296 53.1856 51.618 52.9072 51.7846C52.6272 51.9513 52.4706 52.2663 52.5056 52.5896C52.5622 53.1196 52.0772 53.423 51.8672 53.528C51.3339 53.798 50.7772 53.7514 50.5689 53.558C50.3355 53.3414 50.0005 53.278 49.7039 53.388C49.4072 53.4996 49.2005 53.773 49.1705 54.0896C49.1205 54.6363 48.7155 55.1613 48.1872 55.3663C47.9322 55.4629 47.5622 55.5213 47.2305 55.2179C47.0239 55.0313 46.7372 54.9596 46.4689 55.0246C46.1972 55.0912 45.9789 55.2879 45.8839 55.5496C45.8522 55.6329 45.7805 55.8329 45.0005 55.8329C44.4455 55.8329 43.4472 55.4579 42.9589 55.1346C42.3739 54.7496 38.7055 52.0129 35.5372 49.3596C35.0922 48.9846 34.3222 48.1812 33.6422 47.4712C33.0389 46.8412 32.4872 46.2696 32.2039 46.0296C31.8489 45.7296 31.3239 45.7746 31.0289 46.1279C30.7322 46.4796 30.7755 47.0063 31.1272 47.3029C31.3856 47.5213 31.8856 48.0496 32.4372 48.6246C33.1806 49.4012 33.9489 50.2046 34.4656 50.6379C37.569 53.2363 41.299 56.0413 42.0422 56.5296C42.6556 56.9329 43.9772 57.4996 45.0006 57.4996C45.8222 57.4996 46.454 57.3112 46.8922 56.9429C47.4789 57.1713 48.1456 57.1729 48.7872 56.9229C49.5456 56.6296 50.1689 56.0379 50.5222 55.3213C51.1789 55.4613 51.9306 55.3629 52.6139 55.0196C53.2822 54.683 53.7655 54.168 54.0055 53.5663C54.6689 53.6013 55.3522 53.3663 55.9172 52.8813C56.874 52.063 57.1372 50.7897 56.584 49.6414Z"
    fill="#161616"
  ></path>
  <path
    d="M41.6693 35.8331H34.1693C33.7093 35.8331 33.3359 36.2064 33.3359 36.6664C33.3359 37.1264 33.7093 37.4998 34.1693 37.4998H41.6693C42.1293 37.4998 42.5027 37.1264 42.5027 36.6664C42.5027 36.2064 42.1293 35.8331 41.6693 35.8331Z"
    fill="#161616"
  ></path>
  <path
    d="M59.0242 47.868C58.7658 47.4864 58.2492 47.3814 57.8675 47.6414L55.4309 49.278C55.0492 49.5347 54.9475 50.053 55.2042 50.4347C55.3659 50.673 55.6292 50.803 55.8976 50.803C56.056 50.803 56.2176 50.758 56.361 50.6614L58.7976 49.0248C59.1792 48.768 59.2808 48.2498 59.0242 47.868Z"
    fill="#161616"
  ></path>
  <path
    d="M53.8504 51.8448C53.2538 51.3748 50.5854 48.6432 48.9354 46.9232C48.6171 46.5898 48.0888 46.5782 47.7571 46.8982C47.4237 47.2165 47.4137 47.7448 47.7321 48.0765C48.1604 48.5232 51.9387 52.4615 52.8171 53.1549C52.9687 53.2749 53.1521 53.3333 53.3321 53.3333C53.5771 53.3333 53.8221 53.2233 53.9887 53.0149C54.2738 52.6548 54.2121 52.1298 53.8504 51.8448Z"
    fill="#161616"
  ></path>
  <path
    d="M50.5212 53.5165C49.5229 52.7181 47.0146 50.0531 46.4479 49.4364C46.1345 49.0964 45.6095 49.0764 45.2695 49.3864C44.9312 49.6981 44.9079 50.2265 45.2195 50.5648C45.2495 50.5965 48.2429 53.8282 49.4795 54.8182C49.6329 54.9398 49.8179 54.9998 49.9995 54.9998C50.2429 54.9998 50.4862 54.8915 50.6512 54.6882C50.9379 54.3281 50.8796 53.8031 50.5212 53.5165Z"
    fill="#161616"
  ></path>
  <path
    d="M47.2056 55.1948C46.0172 54.1932 43.5855 51.6048 43.1105 51.0965C42.7955 50.7598 42.2672 50.7415 41.9322 51.0565C41.5955 51.3715 41.5788 51.8981 41.8922 52.2348C42.5755 52.9665 44.9022 55.4332 46.1306 56.4698C46.2872 56.6015 46.4772 56.6665 46.6672 56.6665C46.9038 56.6665 47.1406 56.5648 47.3056 56.3698C47.6022 56.0165 47.5572 55.4915 47.2056 55.1948Z"
    fill="#161616"
  ></path>
  <path
    d="M34.74 34.3947C33.3116 33.0414 27.6 32.603 25.8834 32.5014C25.6467 32.4897 25.4284 32.568 25.2617 32.7264C25.095 32.883 25 33.103 25 33.333V48.333C25 48.793 25.3734 49.1664 25.8334 49.1664H30.8334C31.1934 49.1664 31.5134 48.9348 31.625 48.5914C31.7466 48.218 34.6184 39.4047 34.9966 35.0714C35.0184 34.818 34.925 34.568 34.74 34.3947ZM30.225 47.4998H26.6666V34.2264C29.345 34.438 32.235 34.898 33.285 35.408C32.8434 39.058 30.845 45.543 30.225 47.4998Z"
    fill="#161616"
  ></path>
  <path
    d="M64.1669 34.1664C57.6236 34.1664 53.9936 35.8414 53.8419 35.9114C53.6253 36.0131 53.4636 36.2014 53.3969 36.4298C53.3303 36.6582 53.3636 36.9032 53.4886 37.1064C54.5186 38.7648 57.7436 47.9748 58.3636 50.2214C58.4636 50.5831 58.7919 50.8331 59.1669 50.8331H64.1669C64.6269 50.8331 65.0003 50.4597 65.0003 49.9997V34.9997C65.0003 34.5381 64.6269 34.1664 64.1669 34.1664ZM63.3336 49.1664H59.7903C59.0003 46.5931 56.6669 39.8831 55.3653 37.1098C56.6369 36.6782 59.3686 35.9364 63.3336 35.8432V49.1664Z"
    fill="#161616"
  ></path>
</svg>

<svg width="90" height="90" viewBox="0 0 90 90" fill="none" xmlns="http://www.w3.org/2000/svg"><circle opacity=".5" cx="45" cy="45" r="45" fill="#FFE603"/><path d="M56.584 49.641c-.785-1.636-3.593-3.908-6.307-6.103-1.513-1.223-2.943-2.38-3.855-3.292a.833.833 0 0 0-.871-.195c-.562.204-.909.36-1.182.482-.417.187-.557.25-1.118.307a.833.833 0 0 0-.61.365c-1.179 1.761-2.399 1.611-3.214 1.338-.26-.087-.306-.198-.331-.305-.175-.732.703-2.435 1.841-3.573 2.709-2.71 4.105-3.389 7.055-2.07a97.344 97.344 0 0 0 6.734 2.68.835.835 0 0 0 .548-1.575 95.002 95.002 0 0 1-6.6-2.629c-3.822-1.708-5.918-.583-8.913 2.414-1.14 1.14-2.689 3.446-2.289 5.138.172.72.679 1.253 1.432 1.502 1.888.623 3.611.026 4.895-1.677.53-.082.818-.202 1.252-.397.156-.07.34-.151.583-.25.953.895 2.24 1.937 3.595 3.032 2.45 1.982 5.228 4.228 5.853 5.528.309.642-.023 1.06-.248 1.252-.33.283-.782.373-1.027.202a.835.835 0 0 0-1.301.775c.056.53-.429.833-.639.938-.533.27-1.09.223-1.298.03a.833.833 0 0 0-1.398.532c-.05.546-.456 1.071-.984 1.276-.255.097-.625.155-.956-.148a.843.843 0 0 0-.762-.193.832.832 0 0 0-.585.525c-.032.083-.103.283-.883.283-.555 0-1.554-.375-2.042-.698-.585-.385-4.254-3.122-7.422-5.775-.445-.375-1.215-1.179-1.895-1.889-.603-.63-1.155-1.201-1.438-1.441a.834.834 0 0 0-1.077 1.273c.259.218.759.747 1.31 1.322.744.776 1.512 1.58 2.029 2.013 3.103 2.598 6.833 5.403 7.576 5.892.614.403 1.935.97 2.959.97.821 0 1.453-.189 1.891-.557.587.228 1.254.23 1.895-.02a3.282 3.282 0 0 0 1.735-1.602c.657.14 1.409.042 2.092-.301.668-.337 1.152-.852 1.392-1.454.663.035 1.346-.2 1.911-.685.957-.818 1.22-2.091.667-3.24Z" fill="#161616"/><path d="M41.67 35.833h-7.5a.834.834 0 0 0 0 1.667h7.5a.834.834 0 0 0 0-1.667ZM59.024 47.868a.831.831 0 0 0-1.157-.227l-2.436 1.637a.834.834 0 0 0 .93 1.383l2.437-1.636a.834.834 0 0 0 .226-1.157ZM53.85 51.845c-.596-.47-3.265-3.202-4.915-4.922a.832.832 0 1 0-1.203 1.153c.428.447 4.207 4.386 5.085 5.079a.83.83 0 0 0 .515.178.833.833 0 0 0 .518-1.489ZM50.521 53.517c-.998-.799-3.506-3.464-4.073-4.08a.835.835 0 0 0-1.229 1.128c.03.032 3.024 3.263 4.26 4.253a.838.838 0 0 0 1.172-.13.835.835 0 0 0-.13-1.172ZM47.206 55.195c-1.189-1.002-3.62-3.59-4.096-4.099a.833.833 0 1 0-1.218 1.139c.683.732 3.01 3.198 4.239 4.235a.83.83 0 0 0 1.175-.1.834.834 0 0 0-.1-1.175Z" fill="#161616"/><path d="M34.74 34.395c-1.428-1.354-7.14-1.792-8.857-1.894a.833.833 0 0 0-.883.832v15c0 .46.373.833.833.833h5c.36 0 .68-.231.792-.575.122-.373 2.993-9.186 3.372-13.52a.829.829 0 0 0-.257-.676ZM30.225 47.5h-3.558V34.226c2.678.212 5.568.672 6.618 1.182-.442 3.65-2.44 10.135-3.06 12.092ZM64.167 34.166c-6.543 0-10.173 1.675-10.325 1.745a.83.83 0 0 0-.445.519.84.84 0 0 0 .092.676c1.03 1.659 4.255 10.869 4.875 13.115.1.362.428.612.803.612h5c.46 0 .833-.373.833-.833V35a.833.833 0 0 0-.833-.834Zm-.833 15H59.79c-.79-2.573-3.123-9.283-4.425-12.056 1.272-.432 4.004-1.174 7.969-1.267v13.323Z" fill="#161616"/></svg>
